X:237
T:Well Hall. (p)1679.PLFD.237
M:3/4
L:1/8
Q:3/4=45
S:Playford, Dancing Master,6th Ed.,1679
O:England
H:1679.
Z:Chris Partington.
K:F
(FA)(dc)(fA)|G2E2B2|(Ac)(dc)(fg)|a4g2|
(ag)(fc)(d/e/f)|c2F2A2|(GA)(Bc)(BA)|B3cB2:|
|:(BF)(GF)(G/A/B)|D3ED2|(EG)(AG)(A/B/c)|E3FE2|
(Ac)(dc)(fc)|d3(e/f/)(gd)|(ed)(ca)(ga)|f3gf2:|
